icons/key-line.svg

<svg viewBox="0 0 24 24" fill="currentColor" xmlns="http://www.w3.org/2000/svg">
    <path d="M12.917 13C12.441 15.8377 9.973 18 7 18C3.68629 18 1 15.3137 1 12C1 8.68629 3.68629 6 7 6C9.973 6 12.441 8.16229 12.917 11H23V13H21V17H19V13H17V17H15V13H12.917ZM7 16C9.20914 16 11 14.2091 11 12C11 9.79086 9.20914 8 7 8C4.79086 8 3 9.79086 3 12C3 14.2091 4.79086 16 7 16Z"/>
</svg>

<svg xmlns="http://www.w3.org/2000/svg" viewBox="0 0 24 24">
    <g>
        <path fill="none" d="M0 0h24v24H0z"/>
        <path fill-rule="nonzero" d="M12.917 13A6.002 6.002 0 0 1 1 12a6 6 0 0 1 11.917-1H23v2h-2v4h-2v-4h-2v4h-2v-4h-2.083zM7 16a4 4 0 1 0 0-8 4 4 0 0 0 0 8z"/>
    </g>
</svg>
